src/images/NewsAnalyzer (1).svg

<svg width="138" height="21" viewBox="0 0 138 21" fill="none" xmlns="http://www.w3.org/2000/svg">
<path d="M15.0781 1.78125V3.5L13.5547 3.79297V16H10.7129L4.9707 6.42969L4.91211 6.43945V13.998L6.43555 14.291V16H0.546875V14.291L2.06055 13.998V3.79297L0.546875 3.5V1.78125H2.06055H4.91211L10.6543 11.3516L10.7129 11.3418V3.79297L9.18945 3.5V1.78125H13.5547H15.0781ZM21.123 16.2051C19.5996 16.2051 18.3822 15.7168 17.4707 14.7402C16.5592 13.7637 16.1035 12.5234 16.1035 11.0195V10.6289C16.1035 9.0599 16.5332 7.76758 17.3926 6.75195C18.2585 5.73633 19.4173 5.23177 20.8691 5.23828C22.2949 5.23828 23.4017 5.66797 24.1895 6.52734C24.9772 7.38672 25.3711 8.54883 25.3711 10.0137V11.5664H19.0625L19.043 11.625C19.0951 12.3216 19.3262 12.8945 19.7363 13.3438C20.153 13.793 20.7161 14.0176 21.4258 14.0176C22.0573 14.0176 22.5814 13.9557 22.998 13.832C23.4147 13.7018 23.8704 13.5 24.3652 13.2266L25.1367 14.9844C24.7005 15.3294 24.1341 15.6191 23.4375 15.8535C22.7474 16.0879 21.9759 16.2051 21.123 16.2051ZM20.8691 7.43555C20.3418 7.43555 19.9251 7.63737 19.6191 8.04102C19.3132 8.44466 19.1243 8.97526 19.0527 9.63281L19.082 9.68164H22.5781V9.42773C22.5781 8.82227 22.4349 8.34049 22.1484 7.98242C21.8685 7.61784 21.4421 7.43555 20.8691 7.43555ZM41.7871 7.15234L40.7227 7.28906L38.5156 16H36.1328L34.1699 9.71094H34.1113L32.1484 16H29.7754L27.5586 7.28906L26.4941 7.15234V5.43359H31.2793V7.15234L30.1562 7.36719L31.1523 12.2012H31.2109L33.1836 5.43359H35.0977L37.0898 12.2207H37.1484L38.1348 7.37695L37.002 7.15234V5.43359H41.7871V7.15234ZM51.3867 9.06641H49.4727L49.1699 7.74805C48.9746 7.5918 48.7272 7.46159 48.4277 7.35742C48.1348 7.25326 47.8092 7.20117 47.4512 7.20117C46.9499 7.20117 46.5527 7.3151 46.2598 7.54297C45.9668 7.76432 45.8203 8.04427 45.8203 8.38281C45.8203 8.70182 45.9603 8.96875 46.2402 9.18359C46.5202 9.39193 47.0801 9.57747 47.9199 9.74023C49.2285 10.0007 50.1986 10.3848 50.8301 10.8926C51.4616 11.3939 51.7773 12.0872 51.7773 12.9727C51.7773 13.9232 51.3672 14.7012 50.5469 15.3066C49.7331 15.9056 48.6589 16.2051 47.3242 16.2051C46.5104 16.2051 45.7617 16.0879 45.0781 15.8535C44.401 15.6126 43.7988 15.2708 43.2715 14.8281L43.2422 12.4551H45.2344L45.625 13.832C45.7943 13.9753 46.0254 14.0827 46.3184 14.1543C46.6113 14.2194 46.9173 14.252 47.2363 14.252C47.8158 14.252 48.2552 14.1478 48.5547 13.9395C48.8607 13.7311 49.0137 13.4479 49.0137 13.0898C49.0137 12.7773 48.8607 12.5072 48.5547 12.2793C48.2487 12.0514 47.6855 11.8496 46.8652 11.6738C45.6217 11.4199 44.681 11.0456 44.043 10.5508C43.4115 10.0495 43.0957 9.36914 43.0957 8.50977C43.0957 7.62435 43.4603 6.86263 44.1895 6.22461C44.9186 5.58008 45.957 5.25781 47.3047 5.25781C48.125 5.25781 48.8997 5.36849 49.6289 5.58984C50.3646 5.8112 50.9408 6.0944 51.3574 6.43945L51.3867 9.06641ZM52.8418 14.291L53.8574 14.1445L58.1836 1.78125H61.1035L65.4004 14.1445L66.416 14.291V16H61.5723V14.291L62.5586 14.1152L61.9336 12.1621H57.3242L56.6992 14.1152L57.6855 14.291V16H52.8418V14.291ZM57.998 10.0625H61.2598L59.6582 5.05273H59.5996L57.998 10.0625ZM67.2754 14.291L68.6426 13.998V7.44531L67.1289 7.15234V5.43359H71.2988L71.4258 6.94727C71.7773 6.4069 72.2103 5.98698 72.7246 5.6875C73.2389 5.38802 73.8151 5.23828 74.4531 5.23828C75.5208 5.23828 76.3542 5.57357 76.9531 6.24414C77.5521 6.91471 77.8516 7.96615 77.8516 9.39844V13.998L79.2188 14.291V16H73.7695V14.291L74.9902 13.998V9.4082C74.9902 8.69857 74.847 8.19727 74.5605 7.9043C74.2741 7.60482 73.8411 7.45508 73.2617 7.45508C72.8841 7.45508 72.5456 7.5332 72.2461 7.68945C71.9466 7.83919 71.696 8.05404 71.4941 8.33398V13.998L72.6465 14.291V16H67.2754V14.291ZM86.8555 16C86.7773 15.8242 86.709 15.6452 86.6504 15.4629C86.5918 15.2741 86.5462 15.0853 86.5137 14.8965C86.1751 15.2871 85.7617 15.6029 85.2734 15.8438C84.7917 16.0846 84.2383 16.2051 83.6133 16.2051C82.5781 16.2051 81.7546 15.9251 81.1426 15.3652C80.5371 14.7988 80.2344 14.0306 80.2344 13.0605C80.2344 12.071 80.6315 11.306 81.4258 10.7656C82.2201 10.2253 83.3854 9.95508 84.9219 9.95508H86.377V8.91992C86.377 8.41211 86.2305 8.01823 85.9375 7.73828C85.6445 7.45833 85.2116 7.31836 84.6387 7.31836C84.3132 7.31836 84.0234 7.35742 83.7695 7.43555C83.5156 7.50716 83.3105 7.59505 83.1543 7.69922L82.9688 8.83203H80.8203L80.8301 6.48828C81.3509 6.13672 81.9466 5.84049 82.6172 5.59961C83.2943 5.35872 84.0299 5.23828 84.8242 5.23828C86.1328 5.23828 87.194 5.56055 88.0078 6.20508C88.8281 6.8431 89.2383 7.75456 89.2383 8.93945V13.3047C89.2383 13.4674 89.2383 13.6204 89.2383 13.7637C89.2448 13.9069 89.2578 14.0436 89.2773 14.1738L90.1465 14.291V16H86.8555ZM84.3848 14.0957C84.8145 14.0957 85.2051 14.0046 85.5566 13.8223C85.9082 13.6335 86.1816 13.3991 86.377 13.1191V11.5078H84.9219C84.3164 11.5078 83.8574 11.651 83.5449 11.9375C83.2324 12.2174 83.0762 12.556 83.0762 12.9531C83.0762 13.3112 83.1901 13.5911 83.418 13.793C83.6523 13.9948 83.9746 14.0957 84.3848 14.0957ZM90.8203 2.48438V0.765625H95.1953V13.998L96.5723 14.291V16H90.9668V14.291L92.3438 13.998V2.77734L90.8203 2.48438ZM108.447 7.15234L107.461 7.29883L103.574 17.582C103.268 18.3438 102.858 18.9818 102.344 19.4961C101.836 20.0104 101.068 20.2676 100.039 20.2676C99.7982 20.2676 99.5703 20.248 99.3555 20.209C99.1471 20.1699 98.8997 20.1146 98.6133 20.043L98.9453 17.9629C99.0365 17.9759 99.1309 17.9889 99.2285 18.002C99.3262 18.015 99.4108 18.0215 99.4824 18.0215C99.9577 18.0215 100.322 17.9043 100.576 17.6699C100.83 17.4421 101.025 17.1556 101.162 16.8105L101.484 16.0098L98.1348 7.30859L97.1484 7.15234V5.43359H102.324V7.15234L101.143 7.34766L102.588 11.5664L102.734 12.3281L102.793 12.3379L104.463 7.34766L103.271 7.15234V5.43359H108.447V7.15234ZM113.125 13.8125H116.074L116.191 12.4062H118.369V16H109.59V14.3203L114.619 7.64062H112.031L111.924 9.03711H109.736V5.43359H118.193V7.06445L113.125 13.8125ZM124.697 16.2051C123.174 16.2051 121.956 15.7168 121.045 14.7402C120.133 13.7637 119.678 12.5234 119.678 11.0195V10.6289C119.678 9.0599 120.107 7.76758 120.967 6.75195C121.833 5.73633 122.992 5.23177 124.443 5.23828C125.869 5.23828 126.976 5.66797 127.764 6.52734C128.551 7.38672 128.945 8.54883 128.945 10.0137V11.5664H122.637L122.617 11.625C122.669 12.3216 122.9 12.8945 123.311 13.3438C123.727 13.793 124.29 14.0176 125 14.0176C125.632 14.0176 126.156 13.9557 126.572 13.832C126.989 13.7018 127.445 13.5 127.939 13.2266L128.711 14.9844C128.275 15.3294 127.708 15.6191 127.012 15.8535C126.322 16.0879 125.55 16.2051 124.697 16.2051ZM124.443 7.43555C123.916 7.43555 123.499 7.63737 123.193 8.04102C122.887 8.44466 122.699 8.97526 122.627 9.63281L122.656 9.68164H126.152V9.42773C126.152 8.82227 126.009 8.34049 125.723 7.98242C125.443 7.61784 125.016 7.43555 124.443 7.43555ZM130.518 14.291L131.885 13.998V7.44531L130.371 7.15234V5.43359H134.541L134.668 6.97656C134.915 6.42969 135.234 6.00326 135.625 5.69727C136.016 5.39128 136.468 5.23828 136.982 5.23828C137.132 5.23828 137.288 5.2513 137.451 5.27734C137.62 5.29688 137.76 5.32292 137.871 5.35547L137.568 7.95312L136.396 7.92383C135.98 7.92383 135.635 8.00521 135.361 8.16797C135.088 8.33073 134.88 8.56185 134.736 8.86133V13.998L136.104 14.291V16H130.518V14.291Z" fill="#1A1B22"/>
</svg>

<svg xmlns="http://www.w3.org/2000/svg" fill="none" viewBox="0 0 138 21"><path fill="#1A1B22" d="M15.078 1.781V3.5l-1.523.293V16h-2.842L4.97 6.43l-.059.01v7.558l1.524.293V16H.546v-1.709l1.515-.293V3.793L.547 3.5V1.781h4.365l5.742 9.57.059-.01V3.794L9.189 3.5V1.781H15.078zm6.045 14.424c-1.523 0-2.74-.488-3.652-1.465-.912-.976-1.367-2.217-1.367-3.72v-.391c0-1.57.43-2.861 1.289-3.877.866-1.016 2.024-1.52 3.476-1.514 1.426 0 2.533.43 3.32 1.29.788.859 1.182 2.02 1.182 3.486v1.552h-6.308l-.02.059c.052.697.283 1.27.693 1.719.417.449.98.674 1.69.674.631 0 1.155-.062 1.572-.186.417-.13.872-.332 1.367-.605l.772 1.757c-.436.345-1.003.635-1.7.87-.69.234-1.461.351-2.314.351zm-.254-8.77c-.527 0-.944.202-1.25.606-.306.404-.495.934-.566 1.592l.029.049h3.496v-.254c0-.606-.143-1.088-.43-1.446-.28-.364-.706-.546-1.279-.546zm20.918-.283l-1.064.137L38.516 16h-2.383L34.17 9.71h-.059L32.148 16h-2.373L27.56 7.29l-1.065-.138V5.434h4.785v1.718l-1.123.215.996 4.834h.059l1.973-6.767h1.914l1.992 6.787h.058l.987-4.844-1.133-.225V5.434h4.785v1.718zm9.6 1.914h-1.914l-.303-1.318a2.487 2.487 0 0 0-.742-.39 2.899 2.899 0 0 0-.977-.157c-.501 0-.898.114-1.191.342-.293.221-.44.501-.44.84 0 .319.14.586.42.8.28.209.84.394 1.68.557 1.308.26 2.279.645 2.91 1.153.632.5.947 1.194.947 2.08 0 .95-.41 1.728-1.23 2.334-.814.599-1.888.898-3.223.898a6.885 6.885 0 0 1-2.246-.351 5.813 5.813 0 0 1-1.806-1.026l-.03-2.373h1.992l.391 1.377c.17.143.4.25.693.322.293.065.6.098.918.098.58 0 1.02-.104 1.319-.313.306-.208.459-.491.459-.85 0-.312-.153-.582-.46-.81-.305-.228-.869-.43-1.689-.605-1.243-.254-2.184-.628-2.822-1.123-.632-.502-.947-1.182-.947-2.041 0-.886.364-1.647 1.094-2.285.729-.645 1.767-.967 3.115-.967.82 0 1.595.11 2.324.332.736.221 1.312.504 1.728.85l.03 2.626zm1.455 5.225l1.015-.146L58.184 1.78h2.92L65.4 14.145l1.016.146V16h-4.844v-1.709l.987-.176-.625-1.953h-4.61l-.625 1.953.986.176V16h-4.843v-1.709zm5.156-4.229h3.262l-1.602-5.01H59.6l-1.602 5.01zm9.277 4.229l1.368-.293V7.445l-1.514-.293V5.434h4.17l.127 1.513c.351-.54.784-.96 1.299-1.26.514-.299 1.09-.449 1.728-.449 1.068 0 1.901.336 2.5 1.006.6.67.899 1.722.899 3.154v4.6l1.367.293V16h-5.45v-1.709l1.221-.293v-4.59c0-.71-.143-1.21-.43-1.504-.286-.3-.719-.449-1.298-.449-.378 0-.716.078-1.016.234-.3.15-.55.365-.752.645v5.664l1.153.293V16h-5.372v-1.709zM86.855 16a4.465 4.465 0 0 1-.342-1.104c-.338.391-.751.707-1.24.948-.481.24-1.035.361-1.66.361-1.035 0-1.858-.28-2.47-.84-.606-.566-.909-1.334-.909-2.305 0-.989.398-1.754 1.192-2.294.794-.54 1.96-.81 3.496-.81h1.455V8.92c0-.508-.146-.902-.44-1.182-.293-.28-.725-.42-1.298-.42-.326 0-.616.04-.87.118a2.18 2.18 0 0 0-.615.263l-.185 1.133H80.82l.01-2.344a8.031 8.031 0 0 1 1.787-.888 6.54 6.54 0 0 1 2.207-.362c1.309 0 2.37.323 3.184.967.82.638 1.23 1.55 1.23 2.734V13.764c.007.143.02.28.04.41l.868.117V16h-3.29zm-2.47-1.904c.43 0 .82-.091 1.172-.274.351-.188.625-.423.82-.703v-1.611h-1.455c-.606 0-1.065.143-1.377.43-.313.28-.469.618-.469 1.015 0 .358.114.638.342.84.234.202.557.303.967.303zM90.82 2.484V.766h4.375v13.232l1.377.293V16h-5.605v-1.709l1.377-.293V2.778l-1.524-.294zm17.627 4.668l-.986.147-3.887 10.283c-.306.762-.716 1.4-1.23 1.914-.508.514-1.276.772-2.305.772-.24 0-.469-.02-.683-.059-.209-.04-.456-.094-.743-.166l.332-2.08.284.039c.097.013.182.02.253.02.476 0 .84-.118 1.094-.352.254-.228.449-.514.586-.86l.322-.8-3.35-8.701-.986-.157V5.434h5.176v1.718l-1.181.196 1.445 4.218.146.762.059.01 1.67-4.99-1.192-.196V5.434h5.176v1.718zm4.678 6.66h2.949l.117-1.406h2.178V16h-8.779v-1.68l5.029-6.68h-2.588l-.107 1.397h-2.188V5.434h8.457v1.63l-5.068 6.748zm11.572 2.393c-1.523 0-2.741-.488-3.652-1.465-.912-.976-1.367-2.217-1.367-3.72v-.391c0-1.57.429-2.861 1.289-3.877.866-1.016 2.025-1.52 3.476-1.514 1.426 0 2.533.43 3.321 1.29.787.859 1.181 2.02 1.181 3.486v1.552h-6.308l-.02.059c.052.697.283 1.27.694 1.719.416.449.979.674 1.689.674.632 0 1.156-.062 1.572-.186.417-.13.873-.332 1.367-.605l.772 1.757c-.436.345-1.003.635-1.699.87-.69.234-1.462.351-2.315.351zm-.254-8.77c-.527 0-.944.202-1.25.606-.306.404-.494.934-.566 1.592l.029.049h3.496v-.254c0-.606-.143-1.088-.429-1.446-.28-.364-.707-.546-1.28-.546zm6.075 6.856l1.367-.293V7.445l-1.514-.293V5.434h4.17l.127 1.543c.247-.547.566-.974.957-1.28a2.139 2.139 0 0 1 1.357-.459c.15 0 .306.013.469.04.169.019.309.045.42.077l-.303 2.598-1.172-.03c-.416 0-.761.082-1.035.245a1.585 1.585 0 0 0-.625.693v5.137l1.368.293V16h-5.586v-1.709z"/></svg>
